X:87
T:Mickey Callaghan's Fancy
R:hornpipe
D:Michael Tubridy: The Eagle's Whistle
Z:id:hn-hornpipe-87
M:C|
K:G
BA|GEDE GABA|GEDE GABc|dBeB dBGB|A2AG A2BA|
GEDE GABA|GEDE GABc|dBeB dBGB|A2G2 G2:|
|:Bd|e2ed edBd|d2de dBGB|c2cA B2AG|EAAG A2BA|
GEDE GABA|GEDE GABc|dBeB dBGB|A2G2 G2:|
<end>
<start>
